humanity-icon-theme/Humanity/places/64/folder-download.svg

<?xml version="1.0" encoding="UTF-8" standalone="no"?>
<!-- Created with Inkscape (http://www.inkscape.org/) -->
<svg
   xmlns:svg="http://www.w3.org/2000/svg"
   xmlns="http://www.w3.org/2000/svg"
   xmlns:xlink="http://www.w3.org/1999/xlink"
   version="1.0"
   width="64"
   height="64"
   id="svg2906">
  <defs
     id="defs2908">
    <linearGradient
       id="linearGradient2264-108-719-42-524">
      <stop
         id="stop2530"
         style="stop-color:#e6e6e6;stop-opacity:1"
         offset="0" />
      <stop
         id="stop2532"
         style="stop-color:#929292;stop-opacity:1"
         offset="1" />
    </linearGradient>
    <linearGradient
       x1="28.314739"
       y1="20.709501"
       x2="0.81572169"
       y2="20.709501"
       id="linearGradient2903"
       xlink:href="#linearGradient2264-108-719-42-524"
       gradientUnits="userSpaceOnUse"
       gradientTransform="matrix(0,-0.8174161,-0.7765089,0,61.751239,61.331972)" />
    <linearGradient
       id="linearGradient4222-922-657-993">
      <stop
         id="stop2926"
         style="stop-color:#ffffff;stop-opacity:1"
         offset="0" />
      <stop
         id="stop2928"
         style="stop-color:#ffffff;stop-opacity:0"
         offset="1" />
    </linearGradient>
    <linearGradient
       x1="13.471772"
       y1="25.410501"
       x2="57.726395"
       y2="25.410501"
       id="linearGradient2483"
       xlink:href="#linearGradient4222-922-657-993"
       gradientUnits="userSpaceOnUse"
       gradientTransform="matrix(0,0.9480445,-0.8964417,0,66.801361,19.321005)" />
    <linearGradient
       id="linearGradient3484">
      <stop
         id="stop3486"
         style="stop-color:#bdbdbd;stop-opacity:1"
         offset="0" />
      <stop
         id="stop3488"
         style="stop-color:#d0d0d0;stop-opacity:1"
         offset="1" />
    </linearGradient>
    <linearGradient
       id="linearGradient6404">
      <stop
         id="stop6406"
         style="stop-color:#f9f9f9;stop-opacity:1"
         offset="0" />
      <stop
         id="stop6408"
         style="stop-color:#c9c9c9;stop-opacity:1"
         offset="1" />
    </linearGradient>
    <linearGradient
       id="linearGradient5060-820">
      <stop
         id="stop2681"
         style="stop-color:#000000;stop-opacity:1"
         offset="0" />
      <stop
         id="stop2683"
         style="stop-color:#000000;stop-opacity:0"
         offset="1" />
    </linearGradient>
    <radialGradient
       cx="605.71429"
       cy="486.64789"
       r="117.14286"
       fx="605.71429"
       fy="486.64789"
       id="radialGradient2880"
       xlink:href="#linearGradient5060-820"
       gradientUnits="userSpaceOnUse"
       gradientTransform="matrix(-3.212956e-2,0,0,3.705882e-2,23.363215,25.412461)" />
    <linearGradient
       id="linearGradient5060-179">
      <stop
         id="stop2675"
         style="stop-color:#000000;stop-opacity:1"
         offset="0" />
      <stop
         id="stop2677"
         style="stop-color:#000000;stop-opacity:0"
         offset="1" />
    </linearGradient>
    <radialGradient
       cx="605.71429"
       cy="486.64789"
       r="117.14286"
       fx="605.71429"
       fy="486.64789"
       id="radialGradient2878"
       xlink:href="#linearGradient5060-179"
       gradientUnits="userSpaceOnUse"
       gradientTransform="matrix(3.212956e-2,0,0,3.705882e-2,24.636785,25.412461)" />
    <linearGradient
       id="linearGradient5048-585">
      <stop
         id="stop2667"
         style="stop-color:#000000;stop-opacity:0"
         offset="0" />
      <stop
         id="stop2669"
         style="stop-color:#000000;stop-opacity:1"
         offset="0.5" />
      <stop
         id="stop2671"
         style="stop-color:#000000;stop-opacity:0"
         offset="1" />
    </linearGradient>
    <linearGradient
       x1="302.85715"
       y1="366.64789"
       x2="302.85715"
       y2="609.50507"
       id="linearGradient2876"
       xlink:href="#linearGradient5048-585"
       gradientUnits="userSpaceOnUse"
       gradientTransform="matrix(8.284024e-2,0,0,3.705882e-2,-5.9408285,25.412461)" />
    <linearGradient
       id="linearGradient3390-178-986-453-8">
      <stop
         id="stop3624-5"
         style="stop-color:#bb2b12;stop-opacity:1"
         offset="0" />
      <stop
         id="stop3626-7"
         style="stop-color:#cd7233;stop-opacity:1"
         offset="1" />
    </linearGradient>
    <linearGradient
       id="linearGradient7012-661-145-733-759-865-745-661-970-94-6">
      <stop
         id="stop3618-2"
         style="stop-color:#edb763;stop-opacity:1"
         offset="0" />
      <stop
         id="stop2559"
         style="stop-color:#de7f32;stop-opacity:1"
         offset="0.5" />
      <stop
         id="stop3620-1"
         style="stop-color:#d24413;stop-opacity:1"
         offset="1" />
    </linearGradient>
    <linearGradient
       id="linearGradient6129-963-697-142-998-580-273">
      <stop
         id="stop2661"
         style="stop-color:#0a0a0a;stop-opacity:0.498"
         offset="0" />
      <stop
         id="stop2663"
         style="stop-color:#0a0a0a;stop-opacity:0"
         offset="1" />
    </linearGradient>
    <linearGradient
       id="linearGradient6087-437-184-795-110-662-495">
      <stop
         id="stop2693"
         style="stop-color:#ffffff;stop-opacity:0.40000001"
         offset="0" />
      <stop
         id="stop2695"
         style="stop-color:#ffffff;stop-opacity:0"
         offset="1" />
    </linearGradient>
    <linearGradient
       id="linearGradient8265-821-176-38-919-66-249">
      <stop
         id="stop2687"
         style="stop-color:#ffffff;stop-opacity:0.27450982"
         offset="0" />
      <stop
         id="stop2689"
         style="stop-color:#ffffff;stop-opacity:0.07843138"
         offset="1" />
    </linearGradient>
    <linearGradient
       x1="11.566265"
       y1="22.292103"
       x2="15.214532"
       y2="33.95525"
       id="linearGradient2877"
       xlink:href="#linearGradient8265-821-176-38-919-66-249"
       gradientUnits="userSpaceOnUse"
       gradientTransform="matrix(1.3407707,0,0,1.33,-0.3733138,-1.3099814)" />
    <radialGradient
       cx="7.2646537"
       cy="8.3021259"
       r="20.979567"
       fx="7.2646537"
       fy="8.3021259"
       id="radialGradient2881"
       xlink:href="#linearGradient6087-437-184-795-110-662-495"
       gradientUnits="userSpaceOnUse"
       gradientTransform="matrix(0,1.606606,-2.1816541,0,34.685541,9.28484)" />
    <linearGradient
       x1="22.934725"
       y1="49.629246"
       x2="22.809399"
       y2="36.657963"
       id="linearGradient2885"
       xlink:href="#linearGradient6129-963-697-142-998-580-273"
       gradientUnits="userSpaceOnUse"
       gradientTransform="matrix(1.5347702,0,0,1.3270123,-5.0206145,-4.8541574e-2)" />
    <radialGradient
       cx="63.969177"
       cy="14.113381"
       r="23.097054"
       fx="63.969177"
       fy="14.113381"
       id="radialGradient2888"
       xlink:href="#linearGradient7012-661-145-733-759-865-745-661-970-94-6"
       gradientUnits="userSpaceOnUse"
       gradientTransform="matrix(2.0979394,-1.2620327e-7,8.2824269e-8,1.3475335,-115.96782,9.3537334)" />
    <linearGradient
       x1="82.453476"
       y1="45.114193"
       x2="65.340263"
       y2="15.943953"
       id="linearGradient2891"
       xlink:href="#linearGradient3390-178-986-453-8"
       gradientUnits="userSpaceOnUse"
       gradientTransform="matrix(1.3407998,0,0,1.3264587,-72.462643,-1.6032277)" />
    <linearGradient
       x1="62.988873"
       y1="13.182598"
       x2="62.988873"
       y2="16.19013"
       id="linearGradient2898"
       xlink:href="#linearGradient6404"
       gradientUnits="userSpaceOnUse"
       gradientTransform="matrix(1.3407707,0,0,1.33,-68.673377,-1.5100021)" />
    <radialGradient
       cx="3"
       cy="5.01718"
       r="21"
       fx="3"
       fy="5.01718"
       id="radialGradient2900"
       xlink:href="#linearGradient3484"
       gradientUnits="userSpaceOnUse"
       gradientTransform="matrix(-1.7093459e-8,2.2800078,-2.8951677,-1.9417461e-8,16.801102,2.2898094)" />
  </defs>
  <path
     d="M 5.2811241,9.6095059 C 4.355629,9.619707 3.6363637,10.264557 3.6363637,11.139503 C 3.6363637,18.473728 3.6793863,24.093141 3.6363637,30.757577 C 5.5610006,30.757577 60.532,25.822427 60.532,23.704359 L 60.532,15.123839 C 60.532,14.248894 59.888687,13.583799 58.963187,13.594001 L 31.80518,13.594001 C 29.059975,13.594001 27.11397,9.5949999 25.101327,9.5949999 L 5.2811241,9.6095059 z"
     id="path2856"
     style="fill:url(#linearGradient2898);fill-opacity:1;stroke:url(#radialGradient2900);stroke-width:1;stroke-linecap:round;stroke-linejoin:round;stroke-miterlimit:4;stroke-dasharray:none;stroke-opacity:1;display:inline" />
  <g
     transform="matrix(1.2849052,0,0,0.8866667,0.967458,18.439998)"
     id="g2858"
     style="opacity:0.4">
    <rect
       width="40.700279"
       height="9"
       x="4"
       y="39"
       id="rect2860"
       style="fill:url(#linearGradient2876);fill-opacity:1;fill-rule:nonzero;stroke:none;stroke-width:1;marker:none;visibility:visible;display:inline;overflow:visible" />
    <path
       d="M 44.700217,39.00031 C 44.700217,39.00031 44.700217,47.999814 44.700217,47.999814 C 46.35481,48.016754 48.700218,45.983481 48.700217,43.499483 C 48.700217,41.015484 46.853815,39.00031 44.700217,39.00031 z"
       id="path2862"
       style="fill:url(#radialGradient2878);fill-opacity:1;fill-rule:nonzero;stroke:none;stroke-width:1;marker:none;visibility:visible;display:inline;overflow:visible" />
    <path
       d="M 4,39.00031 C 4,39.00031 4,47.999814 4,47.999814 C 2.3454068,48.016755 0,45.983481 0,43.499483 C 0,41.015484 1.8464008,39.00031 4,39.00031 z"
       id="path2864"
       style="fill:url(#radialGradient2880);fill-opacity:1;fill-rule:nonzero;stroke:none;stroke-width:1;marker:none;visibility:visible;display:inline;overflow:visible" />
  </g>
  <path
     d="M 2.5259407,20.468232 C 1.0876554,20.632306 1.6560144,22.328083 1.5413397,23.281666 C 2.0676467,34.516892 2.7989745,45.525657 3.3220406,56.760958 C 3.7803743,58.041911 5.4598586,57.385933 6.5240274,57.548543 C 24.213928,57.548543 41.903832,57.548543 59.593735,57.548543 C 61.054375,57.407075 60.447101,55.681312 60.652564,54.693657 C 61.178881,43.458431 61.9106,32.449666 62.43366,21.214365 C 62.096891,19.94854 60.196076,20.651928 59.199039,20.468232 C 40.30801,20.468232 21.416976,20.468232 2.5259407,20.468232 L 2.5259407,20.468232 z"
     id="path2866"
     style="fill:url(#radialGradient2888);fill-opacity:1;stroke:url(#linearGradient2891);stroke-width:0.99867868;stroke-linecap:round;stroke-linejoin:round;stroke-miterlimit:4;stroke-dasharray:none;stroke-dashoffset:0;stroke-opacity:1" />
  <path
     d="M 2.3863178,19.856642 L 61.241426,19.857178 C 62.091689,19.857178 62.642739,20.448511 62.642739,21.183677 L 60.974504,57.012987 C 60.974504,57.748151 60.289997,58.339998 59.439737,58.339998 L 4.1880045,58.339998 C 3.3377415,58.339998 2.653234,57.748151 2.653234,57.012987 L 0.98500571,21.183655 C 0.98500571,20.448488 1.5360548,19.856642 2.3863178,19.856642 z"
     id="path2868"
     style="opacity:0.4;fill:url(#linearGradient2885);fill-opacity:1;stroke:none" />
  <path
     d="M 61.672911,21.565438 C 43.530608,21.565438 20.821304,21.565438 2.679,21.565438 C 3,32 3.7125107,43.316481 4.2292662,54.192001"
     id="path2870"
     style="fill:none;stroke:url(#radialGradient2881);stroke-width:1;stroke-linecap:round;stroke-linejoin:round;stroke-miterlimit:4;stroke-dasharray:none;stroke-opacity:1" />
  <path
     d="M 60.966946,19.970018 C 41.459282,20.067574 21.944372,19.941889 2.4339249,19.970018 C 0.011473769,20.516804 1.3151768,23.25061 1.130124,24.986147 C 1.4278147,30.523398 1.5632824,36.084915 1.9620206,41.607 C 22.074269,38.464478 42.086655,35.479352 61.846826,32.230956 C 62.893956,28.790807 62.90252,24.689066 62.728192,21.020088 C 62.420973,20.34902 61.672994,19.954965 60.966946,19.970018 z"
     id="path2872"
     style="fill:url(#linearGradient2877);fill-opacity:1;stroke:none" />
  <rect
     width="19.000004"
     height="2.1212108"
     rx="1.3407707"
     ry="0.99632323"
     x="6"
     y="12"
     id="rect2874"
     style="fill:#eda374;fill-opacity:1;fill-rule:nonzero;stroke:none;stroke-width:1;marker:none;visibility:visible;display:block;overflow:visible;enable-background:accumulate" />
  <path
     d="M 57.604,41.605 L 42.561,59.535 L 27.495,41.605 L 33.555,41.605 L 33.555,26.565617 L 51.545,26.565617 L 51.545,41.605 L 57.604,41.605 z"
     id="path3288"
     style="fill:url(#linearGradient2903);fill-opacity:1;fill-rule:nonzero;stroke:#8a8a8a;stroke-width:1;stroke-linecap:round;stroke-linejoin:round;marker:none;stroke-miterlimit:4;stroke-dasharray:none;stroke-dashoffset:0;stroke-opacity:1;visibility:visible;display:inline;overflow:visible" />
  <path
     d="M 55.609,42.53531 L 42.7,58.143 L 29.918,42.53531 L 34.556,42.53531 L 34.556,27.605 L 50.443724,27.605 L 50.443724,42.53531 L 55.609,42.53531 L 55.609,42.53531 z"
     id="path3290"
     style="opacity:0.35400008;fill:none;stroke:url(#linearGradient2483);stroke-width:1;stroke-linecap:butt;stroke-linejoin:miter;marker:none;stroke-miterlimit:4;stroke-dasharray:none;stroke-dashoffset:0;stroke-opacity:1;visibility:visible;display:inline;overflow:visible" />
</svg>

<?xml version="1.0" encoding="UTF-8" standalone="no"?>
<!-- Created with Inkscape (http://www.inkscape.org/) -->
<svg id="svg2906" xmlns="http://www.w3.org/2000/svg" height="64" width="64" version="1.0" xmlns:xlink="http://www.w3.org/1999/xlink">
 <defs id="defs2908">
  <linearGradient id="linearGradient2903" y2="20.71" gradientUnits="userSpaceOnUse" x2=".81572" gradientTransform="matrix(0 -.81742 -.77651 0 61.751 61.332)" y1="20.71" x1="28.315">
   <stop id="stop2530" style="stop-color:#e6e6e6" offset="0"/>
   <stop id="stop2532" style="stop-color:#929292" offset="1"/>
  </linearGradient>
  <linearGradient id="linearGradient2483" y2="25.411" gradientUnits="userSpaceOnUse" x2="57.726" gradientTransform="matrix(0 .94804 -.89644 0 66.801 19.321)" y1="25.411" x1="13.472">
   <stop id="stop2926" style="stop-color:#fff" offset="0"/>
   <stop id="stop2928" style="stop-color:#fff;stop-opacity:0" offset="1"/>
  </linearGradient>
  <radialGradient id="radialGradient2880" gradientUnits="userSpaceOnUse" cy="486.65" cx="605.71" gradientTransform="matrix(-.032130 0 0 .037059 23.363 25.412)" r="117.14">
   <stop id="stop2681" offset="0"/>
   <stop id="stop2683" style="stop-opacity:0" offset="1"/>
  </radialGradient>
  <radialGradient id="radialGradient2878" gradientUnits="userSpaceOnUse" cy="486.65" cx="605.71" gradientTransform="matrix(.032130 0 0 .037059 24.637 25.412)" r="117.14">
   <stop id="stop2675" offset="0"/>
   <stop id="stop2677" style="stop-opacity:0" offset="1"/>
  </radialGradient>
  <linearGradient id="linearGradient2876" y2="609.51" gradientUnits="userSpaceOnUse" x2="302.86" gradientTransform="matrix(.082840 0 0 .037059 -5.9408 25.412)" y1="366.65" x1="302.86">
   <stop id="stop2667" style="stop-opacity:0" offset="0"/>
   <stop id="stop2669" offset=".5"/>
   <stop id="stop2671" style="stop-opacity:0" offset="1"/>
  </linearGradient>
  <linearGradient id="linearGradient2877" y2="33.955" gradientUnits="userSpaceOnUse" x2="15.215" gradientTransform="matrix(1.3408 0 0 1.33 -.37331 -1.31)" y1="22.292" x1="11.566">
   <stop id="stop2687" style="stop-color:#fff;stop-opacity:.27451" offset="0"/>
   <stop id="stop2689" style="stop-color:#fff;stop-opacity:.078431" offset="1"/>
  </linearGradient>
  <radialGradient id="radialGradient2881" gradientUnits="userSpaceOnUse" cy="8.3021" cx="7.2647" gradientTransform="matrix(0 1.6066 -2.1817 0 34.686 9.2848)" r="20.98">
   <stop id="stop2693" style="stop-color:#fff;stop-opacity:0.4" offset="0"/>
   <stop id="stop2695" style="stop-color:#fff;stop-opacity:0" offset="1"/>
  </radialGradient>
  <linearGradient id="linearGradient2885" y2="36.658" gradientUnits="userSpaceOnUse" x2="22.809" gradientTransform="matrix(1.5348 0 0 1.327 -5.0206 -.048542)" y1="49.629" x1="22.935">
   <stop id="stop2661" style="stop-color:#0a0a0a;stop-opacity:.498" offset="0"/>
   <stop id="stop2663" style="stop-color:#0a0a0a;stop-opacity:0" offset="1"/>
  </linearGradient>
  <radialGradient id="radialGradient2888" gradientUnits="userSpaceOnUse" cy="14.113" cx="63.969" gradientTransform="matrix(2.0979 -1.262e-7 8.2824e-8 1.3475 -115.97 9.3537)" r="23.097">
   <stop id="stop3618-2" style="stop-color:#edb763" offset="0"/>
   <stop id="stop2559" style="stop-color:#de7f32" offset=".5"/>
   <stop id="stop3620-1" style="stop-color:#d24413" offset="1"/>
  </radialGradient>
  <linearGradient id="linearGradient2891" y2="15.944" gradientUnits="userSpaceOnUse" x2="65.34" gradientTransform="matrix(1.3408 0 0 1.3265 -72.463 -1.6032)" y1="45.114" x1="82.453">
   <stop id="stop3624-5" style="stop-color:#bb2b12" offset="0"/>
   <stop id="stop3626-7" style="stop-color:#cd7233" offset="1"/>
  </linearGradient>
  <linearGradient id="linearGradient2898" y2="16.19" gradientUnits="userSpaceOnUse" x2="62.989" gradientTransform="matrix(1.3408 0 0 1.33 -68.673 -1.51)" y1="13.183" x1="62.989">
   <stop id="stop6406" style="stop-color:#f9f9f9" offset="0"/>
   <stop id="stop6408" style="stop-color:#c9c9c9" offset="1"/>
  </linearGradient>
  <radialGradient id="radialGradient2900" gradientUnits="userSpaceOnUse" cy="5.0172" cx="3" gradientTransform="matrix(-1.7093e-8 2.28 -2.8952 -1.9417e-8 16.801 2.2898)" r="21">
   <stop id="stop3486" style="stop-color:#bdbdbd" offset="0"/>
   <stop id="stop3488" style="stop-color:#d0d0d0" offset="1"/>
  </radialGradient>
 </defs>
 <path id="path2856" style="stroke-linejoin:round;stroke:url(#radialGradient2900);stroke-linecap:round;fill:url(#linearGradient2898)" d="m5.2811 9.6095c-0.9255 0.0102-1.6447 0.6555-1.6447 1.5305 0 7.334 0.043 12.953 0 19.618 1.9246 0 56.896-4.936 56.896-7.054v-8.58c0-0.875-0.643-1.54-1.569-1.53h-27.158c-2.745 0-4.691-3.999-6.704-3.999l-19.82 0.0145z"/>
 <g id="g2858" style="opacity:.4" transform="matrix(1.2849 0 0 .88667 .96746 18.44)">
  <rect id="rect2860" style="fill:url(#linearGradient2876)" height="9" width="40.7" y="39" x="4"/>
  <path id="path2862" style="fill:url(#radialGradient2878)" d="m44.7 39v9c1.655 0.017 4-2.017 4-4.501s-1.846-4.499-4-4.499z"/>
  <path id="path2864" style="fill:url(#radialGradient2880)" d="m4 39v9c-1.6546 0.017-4-2.017-4-4.501s1.8464-4.499 4-4.499z"/>
 </g>
 <path id="path2866" style="stroke-linejoin:round;stroke:url(#linearGradient2891);stroke-linecap:round;stroke-width:.99868;fill:url(#radialGradient2888)" d="m2.5259 20.468c-1.4382 0.164-0.8699 1.86-0.9846 2.814 0.5263 11.235 1.2577 22.244 1.7807 33.479 0.4584 1.281 2.1379 0.625 3.202 0.788h53.07c1.46-0.142 0.853-1.868 1.059-2.855 0.526-11.236 1.258-22.244 1.781-33.48-0.337-1.265-2.238-0.562-3.235-0.746h-56.673-0.0001z"/>
 <path id="path2868" style="opacity:.4;fill:url(#linearGradient2885)" d="m2.3863 19.857h58.855c0.851 0 1.402 0.592 1.402 1.327l-1.668 35.829c0 0.735-0.685 1.327-1.535 1.327h-55.252c-0.8503 0-1.5348-0.592-1.5348-1.327l-1.6682-35.829c0.00001-0.736 0.5511-1.327 1.4013-1.327z"/>
 <path id="path2870" style="stroke-linejoin:round;stroke:url(#radialGradient2881);stroke-linecap:round;fill:none" d="m61.673 21.565h-58.994c0.321 10.435 1.0335 21.751 1.5503 32.627"/>
 <path id="path2872" style="fill:url(#linearGradient2877)" d="m60.967 19.97c-19.508 0.098-39.023-0.028-58.533 0-2.4225 0.547-1.1188 3.281-1.3039 5.016 0.2977 5.537 0.4332 11.099 0.8319 16.621 20.112-3.143 40.125-6.128 59.885-9.376 1.047-3.44 1.056-7.542 0.881-11.211-0.307-0.671-1.055-1.065-1.761-1.05z"/>
 <rect id="rect2874" style="display:block;fill:#eda374" rx="1.3408" ry=".99632" height="2.1212" width="19" y="12" x="6"/>
 <path id="path3288" style="stroke-linejoin:round;stroke:#8a8a8a;stroke-linecap:round;fill:url(#linearGradient2903)" d="m57.604 41.605l-15.043 17.93-15.066-17.93h6.06v-15.039h17.99v15.039h6.059z"/>
 <path id="path3290" style="opacity:0.354;stroke:url(#linearGradient2483);fill:none" d="m55.609 42.535l-12.909 15.608-12.782-15.608h4.638v-14.93h15.888v14.93h5.165z"/>
</svg>
